X:57
T:Leg of the Duck, The
R:song
H:also jig#157
Z:id:hn-song-57
M:6/8
K:G
D | DGG GAG | FEF DDB | BAB GAB | cBc A2
F | DGG GAG | FEF DDd | ded cAF | AGF G3 :|
| dgg def|dgg cBc|dgg def|GFG ABc|def ~g3|agf g2e|fed cAF|AGF G3:|
W:I gave it to Kitty because she was pretty,
W:The leg of the duck, the leg of the duck.
W:I gave it to Molly because she was jolly,
W:The leg of the duck, the leg of the duck.
W:(lilt 2nd part)
W:
W:I gave it to Nelly to stick in her belly
W:The leg of the duck, the leg of the duck.
W:She has it, she's got it, wherever she put it,
W:The leg of the duck, the leg of the duck.
W:(lilt 2nd part)

